material/.icons/material/database-edit.svg

<svg xmlns="http://www.w3.org/2000/svg" viewBox="0 0 24 24"><path d="M4 14v3c0 2 3.05 3.72 7 4v-2.89l.13-.11C7.12 17.76 4 16.06 4 14m8-1c-4.42 0-8-1.79-8-4v3c0 2.21 3.58 4 8 4h1.16L17 12.12c-1.6.6-3.29.88-5 .88m0-10C7.58 3 4 4.79 4 7s3.58 4 8 4 8-1.79 8-4-3.58-4-8-4m9 8.13c-.15 0-.29.06-.39.17l-1 1 2.05 2 1-1a.54.54 0 000-.77l-1.24-1.23a.517.517 0 00-.38-.17m-2 1.75L13 18.94V21h2.06l6.06-6.07-2.08-2.05z"/></svg>

<?xml version="1.0" encoding="UTF-8"?><!DOCTYPE svg PUBLIC "-//W3C//DTD SVG 1.1//EN" "http://www.w3.org/Graphics/SVG/1.1/DTD/svg11.dtd"><svg xmlns="http://www.w3.org/2000/svg" xmlns:xlink="http://www.w3.org/1999/xlink" version="1.1" id="mdi-database-edit" width="24" height="24" viewBox="0 0 24 24"><path d="M4,14V17C4,19 7.05,20.72 11,21V18.11L11.13,18C7.12,17.76 4,16.06 4,14M12,13C7.58,13 4,11.21 4,9V12C4,14.21 7.58,16 12,16C12.39,16 12.77,16 13.16,16L17,12.12C15.4,12.72 13.71,13 12,13M12,3C7.58,3 4,4.79 4,7C4,9.21 7.58,11 12,11C16.42,11 20,9.21 20,7C20,4.79 16.42,3 12,3M21,11.13C20.85,11.13 20.71,11.19 20.61,11.3L19.61,12.3L21.66,14.3L22.66,13.3C22.87,13.1 22.88,12.76 22.66,12.53L21.42,11.3C21.32,11.19 21.18,11.13 21.04,11.13M19.04,12.88L13,18.94V21H15.06L21.12,14.93L19.04,12.88Z" /></svg>
